X:3912
T:Furuboms Polska
C:Trad Swedish
I:abc2nwc
L:1/8
M:3/4
O:Sweden
Q:1/4=130
Z:Andy Hornby
K:C
A2 A>B c>d|e2 e4|B2 B>d c>B|B>A A>G E2|
A2 A>B c>d|e2 e4|B2 B>d c>B|B/2A3/2 A4:|
|:g2g3/2a/2 g3/2f/2|f<e e4|G2 G3/2B/2 d3/2B/2|c3/2B/2 c3/2d/2 e3/2f/2|
g2g3/2a/2 g3/2f/2|f<e e4|G2G3/2B/2 d3/2B/2|c2c4:|

